X: 1
T: The Drunken Wives of Fochabers
C:
%D:
R: strathspey
S: Fiddle Hell Online 2022-4-8 handout for Alasdair Frazer workshop
Z: 2022 John Chambers <jc:trillian.mit.edu>
M: 4/4
L: 1/8
K: Dm	% and F
|: A | D<D D2  F>G A<F | G<G G>A B>G A<d | D<D D2  F>G A>c | d>f c<f A<G G :|
|: e | f>d c<A f>g a>f | g<g g>a b>g a>g | f>d c<A f>g a>g | g>d c<f A<G G :|
